X: 965
T: Miserere - Ecce enim veritatem
C: August Ferdinand Häser
L: 1/4
M: 3/4
N: Derived from pl-kk--kk-i-513--007_haser-august-ferdinand--miserere-ecce-enim-veritatem.krn
V: 1 clef=treble
V: 2 clef=treble
V: 3 clef=tenor
V: 4 clef=bass
V: 5 clef=treble
V: 6 clef=bass
K: F
[V:1] B3 | 
[V:2] G3 | 
[V:3] =E3 | 
[V:4] C,3 | 
[V:5] [B3G3E3] | 
[V:6] [G,3C,3] | 
[V:1] B3 | 
[V:2] G3 | 
[V:3] F3 | 
[V:4] _D,3 | 
[V:5] [B3F3] | 
[V:6] [G,3D,3] | 
[V:1] g3 | 
[V:2] B3 | 
[V:3] E3 | 
[V:4] C,3 | 
[V:5] [g3e3] & B3 | 
[V:6] [C3C,3] | 
[V:1] B2z ||  
[V:2] G2z ||  
[V:3] E2z ||  
[V:4] C2z ||  
[V:5] [B2E2]z ||  
[V:6] [G,2C,2]z ||  
[V:1] ABc | 
[V:2] FE_E | 
[V:3] C2F | 
[V:4] F,G,A, | 
[V:5] [AFC][BEC][cF_E] | 
[V:6] F,G,A, | 
[V:1] ^c/d/dd/ d/ | 
[V:2] _E/D/DF/ F/ | 
[V:3] FFD/ D/ | 
[V:4] A,/B,/B,B,,/ =B,,/ | 
[V:5] ^c/d/d[dF] & F2x/ x/ | 
[V:6] [_E/A,/][D/B,/][DB,]B,,/=B,,/ | 
[V:1] G>d c/ B/ | 
[V:2] FE/ G/ G/ G/ | 
[V:3] C>E F/ C/ | 
[V:4] C,>C, D,/ E,/ | 
[V:5] G>dc/B/ & FE/ E/F/C/ | 
[V:6] G,2G, & C,2D,/E,/ | 
[V:1] {/B}AAz | 
[V:2] {/G}FFz | 
[V:3] CCz | 
[V:4] F,F,z | 
[V:5] {/[BG]}[A2F2]z | 
[V:6] [C2F,2]z | 
[V:1] z/ _A/A2 | 
[V:2] z/ F/F2 | 
[V:3] z/ C/C2 | 
[V:4] z/ F,/F,2 | 
[V:5] z/ [_A/F/]-[A2F2] | 
[V:6] z/ [C/F,/]-[C2F,2] | 
[V:1] _A2A/ A/ | 
[V:2] F2_G/ G/ | 
[V:3] C2C/ C/ | 
[V:4] F,2_E,/ E,/ | 
[V:5] [_A2F2][_A_G] | 
[V:6] C2C/C/ & F,2_E, | 
[V:1] A{/cB}A3/A/ | 
[V:2] _GG3/_A/ | 
[V:3] CC3/_A,/ | 
[V:4] _E,E,3/_A,/ | 
[V:5] [_A_E]{/cB}[A3/_G3/]A/ | 
[V:6] [C2_E,2]-[C/E,/]_A,/ | 
[V:1] f_eF/ F/ | 
[V:2] _A=AF/ F/ | 
[V:3] _DCF,/ F,/ | 
[V:4] _D,F,F,/ F,/ | 
[V:5] [f_A][_e=A]F | 
[V:6] [_D_D,][CF,]F, | 
[V:1] _dcc/ c/ | 
[V:2] FFF/ F/ | 
[V:3] B,CC/ C/ | 
[V:4] B,_A,A,/ A,/ | 
[V:5] _dc2 & F3 | 
[V:6] B,[C2_A,2] | 
[V:1] c>=BB | 
[V:2] F>FF | 
[V:3] D>DD | 
[V:4] G,>G,G, | 
[V:5] c>=BB & F3 | 
[V:6] [D3G,3] | 
[V:1] c/_B/Bz | 
[V:2] EGz | 
[V:3] CEz | 
[V:4] CC,z | 
[V:5] c/_B/[BGE]z & Gxx | 
[V:6] CC,z | 
[V:1] ABc | 
[V:2] FE_E | 
[V:3] CCF | 
[V:4] F,G,A, | 
[V:5] [AF][_B=E][cF] | 
[V:6] C2_E & F,G,A, | 
[V:1] ^c/d/dz | 
[V:2] E/D/Dz | 
[V:3] FFz | 
[V:4] A,/B,/B,z | 
[V:5] ^c/d/dz & F2x | 
[V:6] [_E/A,/][F/B,/][FB,]z | 
[V:1] z=c2 | 
[V:2] G3 | 
[V:3] F2E | 
[V:4] C3 | 
[V:5] zc2 & G3 | 
[V:6] F2E & C2-C | 
[V:1] A2z | 
[V:2] F2z | 
[V:3] C2z | 
[V:4] F,2z | 
[V:5] [A2F2]z | 
[V:6] [C2F,2]z | 
[V:1] fff | 
[V:2] AB=B | 
[V:3] CB,F | 
[V:4] _E,D,_D, | 
[V:5] f3 & AB[=BF] | 
[V:6] [C_E,][B,D,]_D, | 
[V:1] aa/f/ c/A/ | 
[V:2] cAA/F/ | 
[V:3] F2F | 
[V:4] C,2C, | 
[V:5] a>f c/A/ & cAA/F/ | 
[V:6] [F,3C,3] | 
[V:1] G3 | 
[V:2] FE2 | 
[V:3] C2B, | 
[V:4] C,3 | 
[V:5] G3 & F=E2 | 
[V:6] C2B, & C,3 | 
[V:1] F2z |]  
[V:2] F2z |]  
[V:3] A,2z |]  
[V:4] F,2z |]  
[V:5] [F2C2]z |]  
[V:6] [A,2F,2]z |]  

